src/components/Home/Core/assets/core-website.svg

<svg width="101" height="73" viewBox="0 0 101 73" fill="none" xmlns="http://www.w3.org/2000/svg">
<path d="M87.1452 64.0937H14.0547V6.24669C14.0547 3.25542 16.5138 0.821289 19.5358 0.821289H81.6641C84.6861 0.821289 87.1452 3.25542 87.1452 6.24669V64.0937Z" fill="white"/>
<path d="M84.9691 3.00391H16.2422V13.9129H84.9691V3.00391Z" fill="#B69538"/>
<path d="M38.0588 44.4576L28.2383 34.0934L38.0588 23.7305L40.2382 26.0305L32.597 34.0934L40.2382 42.1576L38.0588 44.4576Z" fill="#4C4C4C"/>
<path d="M62.2603 44.4576L59.8828 42.1576L68.2187 34.0934L59.8828 26.0305L62.2603 23.7305L72.9737 34.0934L62.2603 44.4576Z" fill="#4C4C4C"/>
<path d="M87.1452 64.0937H14.0547V6.24669C14.0547 3.25542 16.5138 0.821289 19.5358 0.821289H81.6641C84.6861 0.821289 87.1452 3.25542 87.1452 6.24669V64.0937ZM17.3321 60.8482H83.865V6.24669C83.865 5.04451 82.8773 4.06679 81.6628 4.06679H19.5344C18.3199 4.06679 17.3321 5.04451 17.3321 6.24669V60.8482Z" fill="#4C4C4C"/>
<path d="M84.9691 11.7295H16.2422V15.0022H84.9691V11.7295Z" fill="#4C4C4C"/>
<path d="M52.8321 8.83602C53.154 7.47278 52.3099 6.10666 50.9466 5.78476C49.5834 5.46286 48.2173 6.30708 47.8954 7.67032C47.5735 9.03356 48.4176 10.3996 49.7809 10.7215C51.1442 11.0434 52.5102 10.1993 52.8321 8.83602Z" fill="#4C4C4C"/>
<path d="M88.7418 72.8219H12.4692C6.12833 72.8219 0.96875 67.7426 0.96875 61.4975V56.979C0.96875 54.2854 3.19344 52.0947 5.93029 52.0947H39.9852L41.9204 54.6095H59.2893L61.2245 52.0947H95.2794C98.0149 52.0947 100.241 54.2854 100.241 56.979V61.4975C100.241 67.7426 95.0827 72.8219 88.7418 72.8219Z" fill="white"/>
<path d="M53.9549 22.9437L43.7227 44.8877L46.6776 46.2655L56.9098 24.3216L53.9549 22.9437Z" fill="#4C4C4C"/>
<path d="M88.6358 69.548H12.578C7.98181 69.548 4.24219 65.9464 4.24219 61.52V57.1132C4.24219 56.1492 5.05655 55.3662 6.05751 55.3662H38.46L40.3897 57.8188H60.8215L62.7512 55.3662H95.1537C96.1546 55.3662 96.969 56.1505 96.969 57.1132V61.52C96.9704 65.9464 93.232 69.548 88.6358 69.548Z" fill="#B69538"/>
<path d="M88.6358 69.548H12.578C7.98181 69.548 4.24219 65.9464 4.24219 61.52V57.1132C4.24219 56.1492 5.05655 55.3662 6.05751 55.3662H38.46L40.3897 57.8188H60.8215L62.7512 55.3662H95.1537C96.1546 55.3662 96.969 56.1505 96.969 57.1132V61.52C96.9704 65.9464 93.232 69.548 88.6358 69.548ZM7.51062 58.5139V61.52C7.51062 64.2113 9.78354 66.4002 12.578 66.4002H88.6358C91.4303 66.4002 93.7032 64.2113 93.7032 61.52V58.5139H64.3786L62.4488 60.9665H38.7691L36.8393 58.5139H7.51062Z" fill="#4C4C4C"/>
</svg>

<svg width="101" height="73" fill="none" xmlns="http://www.w3.org/2000/svg"><path d="M87.145 64.094h-73.09V6.247c0-2.992 2.459-5.426 5.48-5.426h62.13c3.021 0 5.48 2.434 5.48 5.426v57.847z" fill="#fff"/><path d="M84.97 3.004H16.241v10.909H84.97V3.003z" fill="#B69538"/><path d="M38.059 44.458l-9.82-10.365 9.82-10.363 2.18 2.3-7.642 8.063 7.641 8.065-2.18 2.3zm24.201 0l-2.377-2.3 8.336-8.065-8.336-8.063 2.377-2.3 10.714 10.363L62.26 44.458z" fill="#4C4C4C"/><path d="M87.145 64.094h-73.09V6.247c0-2.992 2.459-5.426 5.48-5.426h62.13c3.021 0 5.48 2.434 5.48 5.426v57.847zm-69.813-3.246h66.533V6.247c0-1.202-.988-2.18-2.202-2.18H19.534c-1.214 0-2.202.978-2.202 2.18v54.601z" fill="#4C4C4C"/><path d="M84.97 11.73H16.241v3.272H84.97V11.73zM52.831 8.835a2.536 2.536 0 1 0-4.937-1.166 2.536 2.536 0 0 0 4.937 1.166z" fill="#4C4C4C"/><path d="M88.742 72.822H12.469c-6.34 0-11.5-5.08-11.5-11.325V56.98c0-2.694 2.224-4.884 4.961-4.884h34.055l1.935 2.514h17.37l1.934-2.514H95.28c2.736 0 4.962 2.19 4.962 4.884v4.519c0 6.245-5.158 11.324-11.5 11.324z" fill="#fff"/><path d="M53.955 22.944L43.723 44.888l2.955 1.378L56.91 24.322l-2.955-1.378z" fill="#4C4C4C"/><path d="M88.636 69.548H12.578c-4.596 0-8.336-3.602-8.336-8.028v-4.407c0-.964.815-1.747 1.816-1.747H38.46l1.93 2.453H60.82l1.93-2.453h32.403c1 0 1.815.785 1.815 1.747v4.407c.001 4.426-3.737 8.028-8.333 8.028z" fill="#B69538"/><path d="M88.636 69.548H12.578c-4.596 0-8.336-3.602-8.336-8.028v-4.407c0-.964.815-1.747 1.816-1.747H38.46l1.93 2.453H60.82l1.93-2.453h32.403c1 0 1.815.785 1.815 1.747v4.407c.001 4.426-3.737 8.028-8.333 8.028zM7.51 58.514v3.006c0 2.691 2.273 4.88 5.067 4.88h76.058c2.794 0 5.067-2.189 5.067-4.88v-3.006H64.38l-1.93 2.453h-23.68l-1.93-2.453H7.511z" fill="#4C4C4C"/></svg>
